remix/System/checkbox-multiple-fill.svg

<svg viewBox="0 0 24 24" fill="currentColor" xmlns="http://www.w3.org/2000/svg"><path d="M6.99979 7V3C6.99979 2.44772 7.4475 2 7.99979 2H20.9998C21.5521 2 21.9998 2.44772 21.9998 3V16C21.9998 16.5523 21.5521 17 20.9998 17H17V20.9925C17 21.5489 16.551 22 15.9925 22H3.00728C2.45086 22 2 21.5511 2 20.9925L2.00276 8.00748C2.00288 7.45107 2.4518 7 3.01025 7H6.99979ZM8.99979 7H15.9927C16.549 7 17 7.44892 17 8.00748V15H19.9998V4H8.99979V7ZM8.50242 18L14.1593 12.3431L12.7451 10.9289L8.50242 15.1716L6.3811 13.0503L4.96689 14.4645L8.50242 18Z"/></svg>

<svg viewBox="0 0 24 24" xmlns="http://www.w3.org/2000/svg"><path fill="none" d="M0 0h24v24H0Z"/><path d="M7 7V3v0c0-.56.44-1 1-1h13v0c.55 0 1 .44 1 1v13 0c0 .55-.45 1-1 1h-4v3.99c0 .55-.45 1-1.01 1H3v0c-.56 0-1.01-.45-1.01-1.01 -.01-.01-.01-.01 0-.01l0-12.986c0-.56.44-1.01 1-1.01h3.99Zm2 0h6.993c.55 0 1 .44 1 1v6.993h3v-11h-11v3Zm-.5 11l5.65-5.657 -1.42-1.42 -4.25 4.243 -2.13-2.122 -1.42 1.41 3.53 3.53Z"/></svg>
